svgs/regular/ram.svg

<svg xmlns="http://www.w3.org/2000/svg" viewBox="0 0 640 512"><!--! Font Awesome Pro 6.0.0-alpha3 by @fontawesome - https://fontawesome.com License - https://fontawesome.com/license (Commercial License) --><path d="M624.3 100.8l-53.11-53.11C561.2 37.63 547.6 31.1 533.4 31.1L450.6 32C431.7 12.35 405.4 0 376 0c-49.13 0-90.17 34.34-100.1 80.21C255.9 79.66 236.6 85.47 221.5 96.94C196.3 89.72 168.8 95.34 148.5 110.8C141.2 108.7 133.7 107.6 126.1 107.6c-45.11 0-81.86 35.09-82.36 78.41C17.48 199.5 0 226.3 0 256s17.48 56.5 43.77 69.97C44.23 366.1 76 398.9 116.6 403.5l37.38 93.46C157.6 506 166.4 512 176.2 512h23.75C213.3 512 224 501.3 224 487.1v-71.32C237.9 426.5 254.5 432 271.1 432S306.1 426.5 320 416.7v71.32C320 501.3 330.7 512 343.1 512h23.75c9.812 0 18.64-5.975 22.29-15.09l37.38-93.46c40.58-4.588 72.35-37.31 72.82-77.48C526.5 312.5 543.1 285.8 543.1 256c0-26.19-13.19-49.5-34.08-64l76.64-.0007c20.24 0 38.75-11.44 47.8-29.54C644.6 141.9 640.6 117 624.3 100.8zM469.1 286.5c-6.641 1.312-12.41 5.375-15.88 11.19c-3.484 5.812-4.359 12.81-2.391 19.28c.9844 3.25 1.438 5.844 1.438 8.125c-.0156 22.36-27.1 39.29-51.01 27.06c-9.695-4.957-22.83-1.414-30.16 6.641c-10.33 11.35-27.57 14.1-42.83 7.145c-9.906-5.156-22.06-2.719-29.3 5.75c-13.31 15.69-40.56 15.69-53.88 0c-7.25-8.5-19.41-10.91-29.3-5.75c-15.28 7.812-32.49 4.182-42.79-7.098c-7.357-8.053-20.49-11.64-30.2-6.688c-23.97 12.23-51.01-4.732-51.01-27.06c0-2.281 .4531-4.875 1.438-8.125C95.17 310.5 94.3 303.5 90.81 297.7C87.34 291.9 81.58 287.8 74.94 286.5C59.33 283.4 48 270.6 48 256s11.33-27.38 26.94-30.5c6.641-1.312 12.41-5.375 15.88-11.19C94.3 208.5 95.17 201.5 93.2 195C92.22 191.8 91.77 189.2 91.77 186.9c0-22.36 27.05-39.35 51.01-27.06c9.693 4.973 22.82 1.402 30.16-6.643C183.3 141.9 200.5 138.2 215.8 146.1c9.922 5.156 22.08 2.75 29.3-5.75c7.355-8.654 19.04-12.67 30.17-11.8C286.3 174 327.1 208 376 208c13.25 0 24-10.75 24-24S389.3 160 376 160C345.1 160 320 134.9 320 104c0-33.98 30.43-60.1 65.47-55.22C413 53.32 432 79.25 432 107.2v62.57c0 9.303 4.537 17.63 11.19 24.12c3.939 3.846 6.832 8.594 8.137 13.99c2.156 8.938 9.25 15.88 18.25 17.84C485.1 229 496 241.5 496 256C496 270.6 484.7 283.4 469.1 286.5zM511.1 111.1c-8.836 0-16-7.164-16-16s7.164-16 16-16c8.836 0 15.1 7.164 15.1 16S520.8 111.1 511.1 111.1z"/></svg>

<svg xmlns="http://www.w3.org/2000/svg" viewBox="0 0 640 512"><!-- Font Awesome Pro 6.0.0-alpha2 by @fontawesome - https://fontawesome.com License - https://fontawesome.com/license (Commercial License) --><path d="M624.344 100.76L571.238 47.654C561.215 37.631 547.621 32 533.445 32H450.746C431.814 12.352 405.371 0 376 0C326.873 0 285.826 34.34 275.006 80.211C255.918 79.662 236.572 85.473 221.469 96.938C196.266 89.719 168.75 95.344 148.531 110.75C141.203 108.656 133.719 107.625 126.125 107.625C81.016 107.625 44.266 142.719 43.766 186.031C17.484 199.5 0 226.25 0 256S17.484 312.5 43.766 325.969C44.229 366.145 76 398.865 116.582 403.453L153.965 496.914C157.609 506.025 166.436 512 176.248 512H200C213.254 512 224 501.254 224 488V416.68C237.887 426.461 254.531 432 272 432S306.113 426.461 320 416.68V488C320 501.254 330.746 512 344 512H367.752C377.564 512 386.391 506.025 390.035 496.914L427.418 403.453C468 398.865 499.771 366.145 500.234 325.969C526.516 312.5 544 285.75 544 256C544 229.809 530.811 206.496 509.916 192H586.553C606.797 192 625.303 180.562 634.355 162.455C644.645 141.879 640.611 117.027 624.344 100.76ZM469.062 286.5C462.422 287.812 456.656 291.875 453.187 297.688C449.703 303.5 448.828 310.5 450.797 316.969C451.781 320.219 452.234 322.813 452.234 325.094C452.219 347.451 425.137 364.379 401.229 352.152C391.533 347.195 378.398 350.738 371.068 358.793C360.742 370.139 343.502 373.791 328.234 365.938C318.328 360.781 306.172 363.219 298.938 371.688C285.625 387.375 258.375 387.375 245.062 371.688C237.812 363.188 225.656 360.781 215.766 365.938C200.49 373.75 183.279 370.119 172.975 358.84C165.617 350.787 152.488 347.197 142.771 352.152C118.801 364.379 91.766 347.42 91.766 325.094C91.766 322.812 92.219 320.219 93.203 316.969C95.172 310.5 94.297 303.5 90.812 297.688C87.344 291.875 81.578 287.812 74.938 286.5C59.328 283.375 48 270.562 48 256S59.328 228.625 74.938 225.5C81.578 224.188 87.344 220.125 90.813 214.312C94.297 208.5 95.172 201.5 93.203 195.031C92.219 191.781 91.766 189.188 91.766 186.906C91.766 164.549 118.816 147.559 142.771 159.846C152.465 164.818 165.59 161.248 172.936 153.203C183.266 141.891 200.516 138.24 215.766 146.062C225.688 151.219 237.844 148.812 245.062 140.312C252.418 131.658 264.1 127.639 275.232 128.516C286.324 174.008 327.141 208 376 208C389.25 208 400 197.25 400 184S389.25 160 376 160C345.125 160 320 134.875 320 104C320 70.02 350.434 43.004 385.471 48.781C413.006 53.322 432 79.254 432 107.16V169.727C432 179.029 436.537 187.354 443.191 193.852C447.131 197.697 450.023 202.445 451.328 207.844C453.484 216.781 460.578 223.719 469.578 225.688C485.125 229.031 496 241.531 496 256C496 270.562 484.672 283.375 469.062 286.5ZM512 112C503.164 112 496 104.836 496 96S503.164 80 512 80S528 87.164 528 96S520.836 112 512 112Z"/></svg>
